apps/www/public/images/career/icons/kaizen-dark.svg

<svg width="49" height="49" viewBox="0 0 49 49" fill="none" xmlns="http://www.w3.org/2000/svg">
<rect x="0.615234" y="0.583008" width="48" height="48" rx="8" fill="#164430"/>
<ellipse cx="24.6155" cy="24.583" rx="10.4446" ry="10.4446" fill="#1B543A"/>
<path d="M38.5327 13.8105C44.4469 21.6305 42.902 32.7642 35.0821 38.6785C27.2621 44.5927 16.1283 43.0479 10.2141 35.2279C4.29982 27.4079 5.8447 16.2742 13.6647 10.3599C17.4822 7.47272 22.0894 6.36315 26.4936 6.89344" stroke="#133929" stroke-width="2" stroke-miterlimit="10" stroke-linejoin="bevel"/>
<path d="M24.3734 42.272C14.5688 42.272 6.62061 34.3238 6.6206 24.5192C6.6206 19.7328 8.51477 15.3889 11.5944 12.1961" stroke="#4CC38A" stroke-width="2" stroke-miterlimit="10" stroke-linejoin="bevel"/>
<path d="M12.125 17.2451L12.125 11.9753L6.85522 11.9753" stroke="#4CC38A" stroke-width="2" stroke-miterlimit="10" stroke-linejoin="bevel"/>
<path d="M24.3732 6.76636C34.1778 6.76636 42.126 14.7146 42.126 24.5192C42.126 29.3055 40.2318 33.6494 37.1522 36.8423" stroke="#4CC38A" stroke-width="2" stroke-miterlimit="10" stroke-linejoin="bevel"/>
<path d="M36.6216 31.7932L36.6216 37.063L41.8914 37.063" stroke="#4CC38A" stroke-width="2" stroke-miterlimit="10" stroke-linejoin="bevel"/>
<path d="M19.0513 24.7319L22.6614 28.342L30.1792 20.8242" stroke="#4CC38A" stroke-width="2" stroke-miterlimit="10" stroke-linejoin="bevel"/>
</svg>

<svg xmlns="http://www.w3.org/2000/svg" width="49" height="49" fill="none" viewBox="0 0 49 49"><rect width="48" height="48" x=".615" y=".583" fill="#164430" rx="8"/><circle cx="24.616" cy="24.583" r="10.445" fill="#1b543a"/><path stroke="#133929" stroke-linejoin="bevel" stroke-miterlimit="10" stroke-width="2" d="M38.533 13.81c5.914 7.82 4.369 18.954-3.45 24.869-7.82 5.914-18.955 4.369-24.869-3.451s-4.37-18.954 3.45-24.868a17.7 17.7 0 0 1 12.83-3.467"/><path stroke="#4cc38a" stroke-linejoin="bevel" stroke-miterlimit="10" stroke-width="2" d="M24.373 42.272c-9.804 0-17.752-7.948-17.752-17.753 0-4.786 1.894-9.13 4.973-12.323"/><path stroke="#4cc38a" stroke-linejoin="bevel" stroke-miterlimit="10" stroke-width="2" d="M12.125 17.245v-5.27h-5.27M24.373 6.766c9.805 0 17.753 7.949 17.753 17.753 0 4.787-1.894 9.13-4.974 12.323"/><path stroke="#4cc38a" stroke-linejoin="bevel" stroke-miterlimit="10" stroke-width="2" d="M36.622 31.793v5.27h5.27M19.051 24.732l3.61 3.61 7.518-7.518"/></svg>
